Unicodia/Resources/Scripts/31C0.svg

<?xml version="1.0" encoding="UTF-8" standalone="no"?>
<!-- Created with Inkscape (http://www.inkscape.org/) -->

<svg
   width="16"
   height="16"
   viewBox="0 0 16 16"
   version="1.1"
   id="svg5"
   inkscape:version="1.2.2 (732a01da63, 2022-12-09)"
   sodipodi:docname="31C0.svg"
   inkscape:export-filename="..\0000.png"
   inkscape:export-xdpi="96"
   inkscape:export-ydpi="96"
   xml:space="preserve"
   xmlns:inkscape="http://www.inkscape.org/namespaces/inkscape"
   xmlns:sodipodi="http://sodipodi.sourceforge.net/DTD/sodipodi-0.dtd"
   xmlns="http://www.w3.org/2000/svg"
   xmlns:svg="http://www.w3.org/2000/svg"><sodipodi:namedview
     id="namedview7"
     pagecolor="#ffffff"
     bordercolor="#666666"
     borderopacity="1.0"
     inkscape:pageshadow="2"
     inkscape:pageopacity="0"
     inkscape:pagecheckerboard="0"
     inkscape:document-units="px"
     showgrid="true"
     width="16mm"
     units="px"
     inkscape:zoom="33.322407"
     inkscape:cx="0.85528035"
     inkscape:cy="8.642833"
     inkscape:window-width="1680"
     inkscape:window-height="998"
     inkscape:window-x="-8"
     inkscape:window-y="-8"
     inkscape:window-maximized="1"
     inkscape:current-layer="layer1"
     showguides="true"
     inkscape:guide-bbox="true"
     inkscape:snap-bbox="true"
     inkscape:bbox-paths="true"
     inkscape:bbox-nodes="true"
     inkscape:snap-global="true"
     inkscape:showpageshadow="2"
     inkscape:deskcolor="#ffffff"><inkscape:grid
       type="xygrid"
       id="grid828"
       originx="0"
       originy="0" /></sodipodi:namedview><defs
     id="defs2" /><g
     inkscape:label="Layer 1"
     inkscape:groupmode="layer"
     id="layer1"><rect
       style="fill:#fff0f5"
       id="rect691"
       width="16"
       height="16"
       x="0"
       y="0" /><path
       fill="currentColor"
       d="m 12.206757,7.3418917 c 0.105406,0 0.181526,-0.017567 0.228379,-0.052702 l 0.527027,-0.5972981 c 0.105406,-0.117122 0.199093,-0.117122 0.281081,0 0.374769,0.3162161 0.690985,0.6382825 0.948649,0.9662161 C 14.31463,7.8299233 14.029236,7.83833 13.945946,7.9216212 13.571177,8.0387441 13.313513,8.507201 13.172974,9.3270267 12.681082,11.493688 11.937394,13.051351 10.941893,14 10.309459,14.503609 9.9171224,14.737837 9.7648651,14.702703 9.7063101,14.690983 9.6711771,14.609013 9.6594593,14.456756 9.6477423,14.257664 9.5891893,14.099555 9.4837836,13.982432 9.3432431,13.795039 8.781081,13.625231 7.7972972,13.472972 7.633339,13.461252 7.5572013,13.379282 7.568919,13.227027 c 0.023418,-0.140541 0.2459459,-0.175676 0.6675674,-0.105406 1.3702704,0.128824 2.1315256,0.105406 2.2837846,-0.07027 1.023585,-0.895633 1.86499,-3.7002185 2.055406,-5.1648616 H 3.141892 C 2.9310813,8.0972972 2.7495555,8.313958 2.5972973,8.5364863 2.5504445,8.6184737 2.5094593,8.6594589 2.4743248,8.6594589 2.4391902,8.6477372 2.3864866,8.6009065 2.3162158,8.5189191 2.1522581,8.3081079 1.9941501,8.1265823 1.8418921,7.9743242 1.5022581,7.6815255 1.4202705,7.5175673 1.5959462,7.4824322 1.8301744,7.318474 1.964865,7.0959458 2,6.8148647 V 1 h 0.8432432 v 6.3418917 z"
       id="path1003"
       style="fill:#5c3566;stroke-width:1" /></g></svg>

<svg height="16" viewBox="0 0 16 16" width="16" xmlns="http://www.w3.org/2000/svg"><path d="m0 0h16v16h-16z" fill="#fff0f5"/><path d="m12.21 7.34c.11 0 .18-.02.23-.05l.53-.6c.11-.12.2-.12.28 0 .37.32.69.64.95.97.11.17-.17.18-.25.26-.38.12-.64.59-.78 1.41-.49 2.16-1.23 3.72-2.23 4.67-.63.5-1.02.74-1.18.7-.05-.01-.09-.09-.1-.24-.01-.2-.07-.36-.18-.48-.14-.18-.7-.35-1.68-.51-.17-.01-.24-.09-.23-.24.02-.14.25-.18.67-.11 1.37.13 2.13.11 2.28-.07 1.02-.9 1.86-3.7 2.06-5.16h-9.44c-.21.21-.39.42-.54.65-.05.08-.09.12-.13.12-.03-.01-.08-.06-.15-.14-.17-.21-.33-.39-.48-.55-.34-.29-.42-.45-.24-.49.23-.16.36-.38.4-.67v-5.81h.84v6.34z" fill="#5c3566"/></svg>
